X:47
T:Chemong Cause
R:reel
C:Bruce Osborne  --  Dec. 1991
Z:abc by bosborne@kos.net
M:2/4
L:1/8
K:F
c/B/|A/F/A/c/ d/c/A/c/|f/e/f/g/ a/f/c/f/|e/c/e/g/ b/g/e/g/|f/e/f/g/ a/f/c/B/|\
A/F/A/c/ d/c/A/c/|f/e/f/g/ a/f/c/f/|e/c/e/g/ b/g/e/g/|(3f/g/f/ e/g/ f:|\
K:Bb
|:A,|B,D/F/ B/F/D/F/|(3B/c/B/ A/c/ BB|b/B/A/B/ f/B/A/B/|b/B/A/B/ [Fc][F c]|\
B,D/F/ B/F/D/F/|(3B/c/B/ A/c/ BF/E/|D/F/B/d/ c/B/A/c/|(3B/c/B/ A/c/ B:|
